assets/logos/google-rcs.svg

<svg width="80" height="80" viewBox="0 0 80 80" fill="none" xmlns="http://www.w3.org/2000/svg">
<circle cx="40" cy="40" r="32" fill="#3C64CB"/>
<path d="M51.2729 25.1731H36.667L18.9707 25.0667C18.7304 25.0744 18.496 25.1433 18.2896 25.2667C18.0832 25.3901 17.9116 25.564 17.791 25.772C17.6704 25.9801 17.6048 26.2154 17.6002 26.4558C17.5957 26.6963 17.6525 26.9339 17.7651 27.1463L22.5876 34.5327V47.7943C22.5876 48.931 22.8115 50.0565 23.2465 51.1066C23.6816 52.1567 24.3192 53.1109 25.123 53.9145C25.9269 54.7181 26.8811 55.3556 27.9314 55.7904C28.9816 56.2252 30.1072 56.4488 31.2438 56.4486H51.289C52.4257 56.4488 53.5513 56.2252 54.6015 55.7904C55.6517 55.3556 56.6059 54.7181 57.4098 53.9145C58.2136 53.1109 58.8513 52.1567 59.2863 51.1066C59.7213 50.0565 59.9453 48.931 59.9453 47.7943V33.8274C59.9453 32.6894 59.7208 31.5625 59.2848 30.5114C58.8487 29.4602 58.2096 28.5054 57.4041 27.7015C56.5986 26.8977 55.6424 26.2606 54.5903 25.8267C53.5383 25.3929 52.4109 25.1708 51.2729 25.1731Z" fill="#F3F3F3"/>
<path d="M50.3548 35.7744H32.0577C31.4715 35.7744 30.9093 35.5416 30.4948 35.1271C30.0803 34.7126 29.8474 34.1504 29.8474 33.5642C29.8474 32.978 30.0803 32.4158 30.4948 32.0013C30.9093 31.5867 31.4715 31.3539 32.0577 31.3539H50.3548C50.941 31.3539 51.5032 31.5867 51.9177 32.0013C52.3322 32.4158 52.565 32.978 52.565 33.5642C52.565 34.1504 52.3322 34.7126 51.9177 35.1271C51.5032 35.5416 50.941 35.7744 50.3548 35.7744Z" fill="#C7C7C7"/>
<path d="M50.3548 42.9679H32.0577C31.4715 42.9679 30.9093 42.735 30.4948 42.3205C30.0803 41.906 29.8474 41.3438 29.8474 40.7576C29.8474 40.1714 30.0803 39.6092 30.4948 39.1947C30.9093 38.7802 31.4715 38.5474 32.0577 38.5474H50.3548C50.941 38.5474 51.5032 38.7802 51.9177 39.1947C52.3322 39.6092 52.565 40.1714 52.565 40.7576C52.565 41.3438 52.3322 41.906 51.9177 42.3205C51.5032 42.735 50.941 42.9679 50.3548 42.9679Z" fill="#C7C7C7"/>
<path d="M41.8452 50.1593H32.0577C31.4715 50.1593 30.9093 49.9265 30.4948 49.5119C30.0803 49.0974 29.8474 48.5352 29.8474 47.949C29.8474 47.3628 30.0803 46.8007 30.4948 46.3861C30.9093 45.9716 31.4715 45.7388 32.0577 45.7388H41.8452C42.4314 45.7388 42.9936 45.9716 43.4081 46.3861C43.8226 46.8007 44.0555 47.3628 44.0555 47.949C44.0555 48.5352 43.8226 49.0974 43.4081 49.5119C42.9936 49.9265 42.4314 50.1593 41.8452 50.1593Z" fill="#C7C7C7"/>
</svg>

<svg xmlns="http://www.w3.org/2000/svg" width="80" height="80" fill="none" viewBox="0 0 80 80"><circle cx="40" cy="40" r="32" fill="#3c64cb"/><path fill="#f3f3f3" d="M51.273 25.173H36.667l-17.696-.106a1.416 1.416 0 0 0-1.206 2.08l4.823 7.386v13.261a8.655 8.655 0 0 0 8.656 8.655h20.045a8.655 8.655 0 0 0 8.656-8.655V33.827a8.655 8.655 0 0 0-8.672-8.654"/><path fill="#c7c7c7" d="M50.355 35.774H32.058a2.21 2.21 0 1 1 0-4.42h18.297a2.21 2.21 0 1 1 0 4.42m0 7.194H32.058a2.21 2.21 0 0 1 0-4.42h18.297a2.21 2.21 0 1 1 0 4.42m-8.51 7.192h-9.787a2.21 2.21 0 1 1 0-4.421h9.787a2.21 2.21 0 1 1 0 4.42"/></svg>
